packages/foundations/assets/icons/functional/images/layout/list.svg

<svg xmlns="http://www.w3.org/2000/svg" width="32" height="32" fill="none"><path fill="#1A1C1F" fill-rule="evenodd" d="M5.661 8.055a1.01 1.01 0 0 0-.646.947c-.003.48.312.862.797.966.351.075 1.039.075 1.39 0 .879-.188 1.078-1.301.324-1.811-.18-.121-.245-.131-.966-.142-.425-.007-.83.011-.899.04m4.926.046a.89.89 0 0 0-.537.638c-.119.461.061.897.467 1.13l.23.131 7.573.014c5.358.01 7.656-.003 7.857-.044.324-.067.626-.299.738-.567.179-.429.018-.976-.36-1.226l-.227-.15-7.764-.013c-7.459-.012-7.772-.008-7.977.087m-4.808 6.934a.992.992 0 0 0-.642 1.449c.093.175.195.272.406.382.265.138.324.147.958.147.596 0 .704-.014.911-.12.129-.066.309-.212.398-.325.146-.183.163-.243.163-.568 0-.327-.016-.384-.165-.568-.293-.362-.437-.414-1.193-.428-.368-.007-.744.007-.836.031m4.95.014c-.499.113-.807.648-.69 1.196.064.303.37.629.664.711.139.039 2.628.057 7.838.057h7.633l.283-.147c.684-.358.717-1.319.058-1.707l-.248-.146-7.654-.008c-4.807-.005-7.739.012-7.884.044M5.573 22.1c-.492.226-.696.822-.459 1.344.211.465.505.572 1.503.547.663-.016.741-.029.912-.146.587-.403.621-1.216.068-1.637-.2-.154-.207-.155-1.033-.168-.615-.01-.872.006-.991.06m4.907.056c-.379.228-.546.657-.43 1.105.081.31.242.502.537.638.204.094.541.099 7.908.1 8.265.001 7.89.013 8.191-.254.252-.225.373-.774.244-1.115a1.08 1.08 0 0 0-.515-.53c-.143-.061-1.462-.073-7.947-.073l-7.775.001z"/></svg>

<svg width="32" height="32" viewBox="0 0 32 32" fill="none" xmlns="http://www.w3.org/2000/svg"><path d="M5.661 8.055 C 5.258 8.224,5.017 8.578,5.015 9.002 C 5.012 9.482,5.327 9.864,5.812 9.968 C 6.163 10.043,6.851 10.043,7.202 9.968 C 8.081 9.780,8.280 8.667,7.526 8.157 C 7.346 8.036,7.281 8.026,6.560 8.015 C 6.135 8.008,5.730 8.026,5.661 8.055 M10.587 8.101 C 10.292 8.237,10.131 8.429,10.050 8.739 C 9.931 9.200,10.111 9.636,10.517 9.869 L 10.747 10.000 18.320 10.014 C 23.678 10.024,25.976 10.011,26.177 9.970 C 26.501 9.903,26.803 9.671,26.915 9.403 C 27.094 8.974,26.933 8.427,26.555 8.177 L 26.328 8.027 18.564 8.014 C 11.105 8.002,10.792 8.006,10.587 8.101 M5.779 15.035 C 5.129 15.201,4.824 15.891,5.137 16.484 C 5.230 16.659,5.332 16.756,5.543 16.866 C 5.808 17.004,5.867 17.013,6.501 17.013 C 7.097 17.013,7.205 16.999,7.412 16.893 C 7.541 16.827,7.721 16.681,7.810 16.568 C 7.956 16.385,7.973 16.325,7.973 16.000 C 7.973 15.673,7.957 15.616,7.808 15.432 C 7.515 15.070,7.371 15.018,6.615 15.004 C 6.247 14.997,5.871 15.011,5.779 15.035 M10.729 15.049 C 10.230 15.162,9.922 15.697,10.039 16.245 C 10.103 16.548,10.409 16.874,10.703 16.956 C 10.842 16.995,13.331 17.013,18.541 17.013 L 26.174 17.013 26.457 16.866 C 27.141 16.508,27.174 15.547,26.515 15.159 L 26.267 15.013 18.613 15.005 C 13.806 15.000,10.874 15.017,10.729 15.049 M5.573 22.100 C 5.081 22.326,4.877 22.922,5.114 23.444 C 5.325 23.909,5.619 24.016,6.617 23.991 C 7.280 23.975,7.358 23.962,7.529 23.845 C 8.116 23.442,8.150 22.629,7.597 22.208 C 7.397 22.054,7.390 22.053,6.564 22.040 C 5.949 22.030,5.692 22.046,5.573 22.100 M10.480 22.156 C 10.101 22.384,9.934 22.813,10.050 23.261 C 10.131 23.571,10.292 23.763,10.587 23.899 C 10.791 23.993,11.128 23.998,18.495 23.999 C 26.760 24.000,26.385 24.012,26.686 23.745 C 26.938 23.520,27.059 22.971,26.930 22.630 C 26.853 22.426,26.623 22.189,26.415 22.100 C 26.272 22.039,24.953 22.027,18.468 22.027 L 10.693 22.028 10.480 22.156 " fill="#1A1C1F" stroke="none" fill-rule="evenodd"></path></svg>
